bundle/image/pages/questions/img/logo.svg

<svg width="92" height="60" viewBox="0 0 92 60" fill="none" xmlns="http://www.w3.org/2000/svg">
<path d="M76.765 12.8908H69.9812V9.67881H77.4239C77.4446 9.24973 77.467 8.86408 77.467 8.48017V6.51025H70.8109V3.29825H87.7591V6.51025H80.7424V8.5236C80.7424 8.88667 80.7424 9.27232 80.7217 9.68055H88.568V12.8925H81.4651C82.9744 15.9551 85.6323 18.1822 89.6512 19.1897C88.9285 19.8759 87.9919 21.2239 87.5245 22.1029C83.654 20.8817 81.1461 18.6338 79.3798 15.4218C78.1035 18.0988 75.6801 20.6263 71.1507 22.1898C70.7677 21.4185 69.7898 20.1121 69.1309 19.492C71.7336 18.6581 73.5309 17.4769 74.7728 16.148M4.76358 9.85079C3.75456 11.4038 2.95596 12.7414 2.61617 13.1271C2.34019 12.3558 1.51055 10.6221 1 9.85079C2.82832 7.98682 4.59282 5.03193 5.61392 2.07704L8.52716 2.99773C7.99592 4.41177 7.33703 5.88835 6.5919 7.30239V22.3148H3.65797V14.6054M11.3507 12.2064L13.2256 12.5955C12.6513 15.2724 11.5888 18.0137 10.44 19.7265C9.86566 19.2331 8.54789 18.4201 7.82518 18.0553C8.6945 16.9488 9.39823 15.2811 9.87083 13.5353M18.8434 12.7935L20.6493 12.1786C21.6911 14.3639 22.35 16.5527 22.626 18.4584L19.6489 19.5076C19.542 18.3263 19.285 17.0617 18.7986 15.4983M19.8386 10.702H22.6242V5.6382L13.5861 5.67468C13.969 4.73314 14.2881 3.74644 14.5641 2.76147L11.5232 2.05445C10.8005 4.92423 9.4603 7.81485 7.82344 9.55026C8.52544 10.021 9.7587 11.0494 10.3106 11.607C10.992 10.7715 11.6715 9.72224 12.289 8.54445H14.3312V18.91C14.3312 19.188 14.2243 19.2522 13.9483 19.2522C13.6499 19.2522 12.7582 19.2522 11.9285 19.2314C12.3753 20.067 12.8427 21.4584 12.9703 22.3583C14.3743 22.3583 15.4575 22.2297 16.3079 21.7364C17.1789 21.2222 17.3928 20.3658 17.3928 18.9517V8.54445M29.1217 14.0807H31.9073V18.9535H29.1217M29.1217 8.18138H31.9073V11.4038H29.1217M37.2681 13.7437C37.751 14.6193 38.1719 15.4514 38.4927 16.2105L41.1075 14.6036C40.6125 13.6221 39.3517 11.581 38.6238 10.457M38.622 10.457L36.1383 11.7981M36.1538 8.09452H42.2839C42.1131 15.1613 41.8578 18.3107 41.2421 18.9743C40.9661 19.2748 40.7315 19.3599 40.3072 19.3599C39.8829 19.3599 37.3612 19.3599 36.4143 19.3078C36.4143 19.3078 36.3694 21.4167 36.4108 22.2523C37.6872 22.2957 40.7108 22.3166 41.5612 22.1672C42.496 21.9952 43.1566 21.7381 43.8155 20.7966C44.709 19.6188 44.9211 16.1497 45.1764 6.61968C45.1971 6.25488 45.1971 5.26992 45.1971 5.26992H38.9239V2.07877H36.1383V5.21606M47.5619 5.57218C48.8658 4.37355 50.2802 2.42968 50.9391 1L53.7609 1.76782C52.6587 3.82808 50.9598 6.1246 49.3936 7.65502M55.3943 8.62609C56.6258 8.04414 63.6528 3.29651 63.6528 3.29651L66.3487 4.66712C64.1737 6.99838 55.1838 12.0048 55.1838 12.0048H66.5574V9.55199H63.0335M52.9088 17.8921V10.4293C53.5039 9.552 54.0351 8.62957 54.4819 7.73146L51.7601 6.7465C50.7821 8.75986 49.0814 10.7506 47.4428 12.0153C47.9534 12.7015 48.7606 14.2857 49.0159 14.9493C49.335 14.6714 49.6748 14.3709 49.9938 14.0495V22.3583H52.9071M54.6216 22.466C56.7052 22.0369 58.2454 21.4167 59.9254 20.5603C61.5416 21.3959 63.4337 22.0161 65.6036 22.4243C65.9865 21.6321 66.7937 20.3675 67.4319 19.7265C65.7088 19.4902 64.1789 19.1272 62.7973 18.6338C64.1789 17.3918 65.814 15.2794 66.5574 13.3529L56.7379 13.3216C55.7341 14.998 54.4129 16.7525 54.4129 16.7525L57.1829 18.7415C56.2809 19.0837 53.9713 19.7525 52.9468 19.9697M58.587 15.5938H61.8607C61.3501 16.2366 60.7119 16.7924 59.9892 17.3066M55.5909 6.43207C55.5909 6.43207 58.6611 4.72619 61.9245 2.57213L59.9858 1.04343C57.7815 2.4401 56.5448 3.29652 55.7927 3.73775M3.83566 40.852C2.97842 39.999 2.34541 39.6568 1.25187 38.9741C3.53037 36.1756 5.42251 31.4992 6.42809 26.8922L10.8954 28.0526C10.5401 29.5535 10.0968 31.0214 9.59488 32.4893H13.3809V26.5517H17.8775V32.4893H27.5504V37.336H20.3647M17.8775 35.446V42.5579H26.3671V47.3368H17.8775V53.2066H29.12V58.0532H2.19707V53.2066H13.3792V47.3368H5.71746V42.5579H13.3792V37.336H7.69929M40.2986 51.565H36.6643V46.4682H40.2986M51.5065 51.3913C52.3845 51.4225 52.4311 51.4225 52.776 51.4225C53.121 51.4225 53.2452 51.3287 53.2452 51.0126V46.6245H49.8593V58.9687H45.3765V42.5839H57.6331V51.1081C57.6331 53.0016 57.352 54.1394 56.0963 54.8013C54.9062 55.4649 53.4004 55.4962 51.5203 55.4962M45.0108 32.1106C42.6892 34.395 38.0805 38.3557 31.8969 40.845L30.2032 36.5769C38.0201 33.4309 43.1497 27.4255 43.1998 27.3665L43.8828 26.557L46.1371 26.5535L46.8202 27.3682C46.8685 27.4255 51.9981 33.4309 59.8151 36.5769L58.1213 40.845M45.5489 34.9213H54.0696V39.3615H41.5818M62.0987 33.6706C63.946 31.3411 66.6161 27.469 66.6161 27.469L69.776 29.6421L63.2164 38.9098L66.3729 40.9614M73.7585 49.9859H75.6697C75.2454 51.0873 74.7055 52.1226 74.0518 53.0086C74.0466 53.0155 74.0449 53.0242 74.0397 53.0311C73.7447 53.4567 73.2687 53.9588 73.1135 54.1203C73.1048 54.1308 73.0945 54.1394 73.0859 54.1499C73.0703 54.1655 73.0617 54.1742 73.0617 54.1742H73.0565C72.7443 54.4869 72.4132 54.7544 72.0803 54.9854C72.8323 55.7602 73.9345 57.275 74.4261 58.2426C77.3514 55.6195 80.1508 51.063 80.1508 46.6019V46.2285L73.7603 46.2441M80.8356 51.4034V54.3236C80.8356 54.678 80.72 54.7752 80.3716 54.7752C80.0249 54.8083 80.0508 54.8083 79.1521 54.7422C79.1521 54.7422 79.4902 57.7423 79.6351 59C81.46 59 82.312 58.9357 83.4125 58.2582C84.5422 57.5495 84.832 56.3873 84.832 54.4209V53.5176C85.7876 55.2599 86.9173 56.7434 88.2782 57.8396L91 54.0978C89.4373 53.1302 88.1333 51.6796 87.0622 49.9373C88.192 49.034 88.9198 48.2853 90.2531 47.2204L87.5521 44.6338C86.4516 45.7525 84.8337 47.3576 84.8337 47.3576V43.7461H88.7594V31.6833H78.3052V28.0735H74.4244V43.7461H80.8373M78.3035 38.9376H84.675V40.9371H78.3035M78.3035 34.2786H84.675V36.2798H78.3035M69.3862 50.4914H61.5485V54.5234H69.3862M70.2917 43.7322H72.0786V47.6981H61.5485V43.7322L63.7253 41.1299M66.8438 37.5479L69.2551 34.2786L72.8255 36.3875C71.1265 38.9046 68.2961 43.0668 66.8438 45.1966M29.1217 5.48185V2.07704H26.3361V21.6721H34.6929V5.48185H29.1217ZM32.5265 42.5214V55.5118H43.4654V42.5214H32.5265Z" stroke="black" stroke-width="0.5" stroke-linecap="round" stroke-linejoin="round"/>
</svg>

<svg width="92" height="60" fill="none" xmlns="http://www.w3.org/2000/svg"><path d="M76.765 12.89h-6.784V9.68h7.443c.02-.43.043-.815.043-1.199V6.51h-6.656V3.298h16.948V6.51h-7.017v2.014c0 .363 0 .748-.02 1.157h7.846v3.212h-7.103c1.51 3.062 4.167 5.29 8.186 6.297-.722.686-1.66 2.034-2.126 2.913-3.871-1.221-6.379-3.47-8.145-6.681-1.276 2.677-3.7 5.204-8.23 6.768-.382-.771-1.36-2.078-2.02-2.698 2.604-.834 4.4-2.015 5.643-3.344M4.763 9.851c-1.008 1.553-1.807 2.89-2.147 3.276C2.34 12.356 1.511 10.622 1 9.851c1.828-1.864 3.593-4.82 4.614-7.774l2.913.92a38.09 38.09 0 0 1-1.935 4.305v15.013H3.658v-7.71m7.693-2.399 1.875.39c-.575 2.676-1.637 5.418-2.786 7.13-.574-.493-1.892-1.306-2.615-1.67.87-1.107 1.573-2.775 2.046-4.52m8.972-.742 1.806-.615c1.042 2.185 1.701 4.374 1.977 6.28l-2.977 1.049c-.107-1.182-.364-2.446-.85-4.01m1.04-4.796h2.785V5.638l-9.038.037c.383-.942.702-1.929.978-2.914l-3.04-.707c-.723 2.87-2.064 5.76-3.7 7.496.701.471 1.935 1.5 2.487 2.057.681-.835 1.36-1.885 1.978-3.063h2.042V18.91c0 .278-.107.342-.383.342-.298 0-1.19 0-2.02-.02.447.835.915 2.226 1.042 3.126 1.404 0 2.487-.128 3.338-.622.87-.514 1.085-1.37 1.085-2.784V8.544m11.729 5.537h2.785v4.872h-2.785m0-10.772h2.785v3.223h-2.785m8.146 2.34c.483.875.904 1.707 1.225 2.466l2.614-1.606c-.495-.982-1.755-3.023-2.483-4.147m-.002 0-2.484 1.341m.016-3.703h6.13c-.17 7.066-.426 10.216-1.042 10.88-.276.3-.51.385-.935.385-.424 0-2.946 0-3.893-.052 0 0-.045 2.109-.003 2.944 1.276.044 4.3.065 5.15-.085.935-.172 1.596-.429 2.255-1.37.893-1.178 1.105-4.647 1.36-14.177.021-.365.021-1.35.021-1.35h-6.273V2.079h-2.786v3.137m11.424.356C48.866 4.374 50.28 2.43 50.939 1l2.822.768c-1.102 2.06-2.801 4.357-4.367 5.887m6 .971c1.232-.582 8.259-5.33 8.259-5.33l2.696 1.371c-2.175 2.331-11.165 7.338-11.165 7.338h11.373V9.552h-3.524m-10.124 8.34V10.43c.595-.877 1.126-1.8 1.573-2.698l-2.722-.984c-.978 2.013-2.679 4.004-4.317 5.268.51.686 1.318 2.27 1.573 2.934.319-.278.659-.578.978-.9v8.31h2.913m1.715.107c2.083-.43 3.623-1.05 5.303-1.906 1.617.836 3.509 1.456 5.679 1.864.383-.792 1.19-2.056 1.828-2.697-1.723-.237-3.253-.6-4.635-1.093 1.382-1.242 3.017-3.355 3.76-5.281l-9.82-.031c-1.003 1.676-2.324 3.43-2.324 3.43l2.77 1.99c-.902.342-3.212 1.01-4.236 1.228m5.64-4.376h3.274c-.51.643-1.15 1.198-1.872 1.713M55.591 6.432s3.07-1.706 6.334-3.86l-1.94-1.529c-2.203 1.397-3.44 2.254-4.192 2.695M3.836 40.852c-.858-.853-1.49-1.195-2.584-1.878 2.278-2.798 4.17-7.475 5.176-12.082l4.467 1.16a47.535 47.535 0 0 1-1.3 4.437h3.786v-5.937h4.497v5.937h9.672v4.847h-7.185m-2.487-1.89v7.112h8.49v4.779h-8.49v5.87H29.12v4.846H2.197v-4.846H13.38v-5.87H5.717v-4.78h7.662v-5.221H7.7m32.6 14.229h-3.635v-5.097H40.3m11.208 4.923c.878.032.924.032 1.269.032.345 0 .47-.094.47-.41v-4.389h-3.387V58.97h-4.483V42.584h12.257v8.524c0 1.894-.281 3.031-1.537 3.693-1.19.664-2.696.695-4.576.695m-6.51-23.385c-2.32 2.284-6.93 6.245-13.113 8.734l-1.694-4.268c7.817-3.146 12.947-9.151 12.997-9.21l.683-.81 2.254-.003.683.814c.048.058 5.178 6.063 12.995 9.209l-1.694 4.268M45.55 34.921h8.52v4.44H41.583m20.517-5.69c1.847-2.33 4.517-6.202 4.517-6.202l3.16 2.173-6.56 9.268 3.157 2.051m7.385 9.025h1.912c-.425 1.101-.965 2.137-1.618 3.023-.005.007-.007.015-.012.022-.295.426-.771.928-.927 1.09-.008.01-.019.018-.027.029l-.024.024h-.005a7.07 7.07 0 0 1-.977.811c.752.775 1.855 2.29 2.346 3.258 2.925-2.623 5.725-7.18 5.725-11.641v-.373l-6.39.015m7.075 5.16v2.92c0 .354-.116.451-.464.451-.347.033-.321.033-1.22-.033 0 0 .338 3 .483 4.258 1.825 0 2.677-.064 3.777-.742 1.13-.709 1.42-1.87 1.42-3.837v-.903c.956 1.742 2.085 3.225 3.446 4.322L91 54.098c-1.563-.968-2.867-2.418-3.938-4.16 1.13-.904 1.858-1.653 3.191-2.718l-2.7-2.586c-1.101 1.118-2.72 2.724-2.72 2.724v-3.612h3.926V31.683H78.305v-3.61h-3.88v15.673h6.412m-2.534-4.808h6.372v2h-6.371m0-6.66h6.371v2.002h-6.371M69.386 50.49H61.55v4.032h7.837m.906-10.79h1.787v3.965h-10.53v-3.966l2.176-2.602m3.119-3.582 2.411-3.27 3.57 2.11c-1.699 2.517-4.529 6.679-5.981 8.809M29.122 5.482V2.077h-2.786v19.595h8.357V5.482h-5.571zm3.404 37.04v12.99h10.94v-12.99h-10.94z" stroke="#000" stroke-width=".5" stroke-linecap="round" stroke-linejoin="round"/></svg>
